X: 7549
T: Cock O' The North
R: jig
M: 6/8
K: Dmajor
|:E|F2 F FED|F2 A B2 A|F2 F FED|E3 EDE|
F3 FED|F2 A B2 A|FGF EFE|D3 D2:|
|:A|d2 A B2 A|d2 A B2 A|FGF FED|E3 EFA|
d2 A B2 A|d2 A B2 A|FGF EFE|D3 D2:|

